src/static/img/icon-expanded.svg

<?xml version="1.0" encoding="utf-8"?>
<!-- Generator: Adobe Illustrator 19.2.0, SVG Export Plug-In . SVG Version: 6.00 Build 0)  -->
<!DOCTYPE svg PUBLIC "-//W3C//DTD SVG 1.1//EN" "http://www.w3.org/Graphics/SVG/1.1/DTD/svg11.dtd">
<svg version="1.1" id="Layer_1" xmlns="http://www.w3.org/2000/svg" xmlns:xlink="http://www.w3.org/1999/xlink" x="0px" y="0px"
	 viewBox="0 0 30 30" style="enable-background:new 0 0 30 30;" xml:space="preserve">
<style type="text/css">
	.st0{fill:#FF3D2F;}
</style>
<title>Artboard 1 copy</title>
<path class="st0" d="M29,7v3H17V7H29 M30,6H16v5h14V6z"/>
<path class="st0" d="M13,7v3H1V7H13 M14,6H0v5h14V6z"/>
<path class="st0" d="M29,14v3H17v-3H29 M30,13H16v5h14V13z"/>
<path class="st0" d="M13,14v10H1V14H13 M14,13H0v12h14V13z"/>
<path class="st0" d="M29,21v3H17v-3H29 M30,20H16v5h14V20z"/>
</svg>

<svg xmlns="http://www.w3.org/2000/svg" viewBox="0 0 30 30"><title>Artboard 1 copy</title><style>.a{fill:#f64747}</style><path class="a" d="M29,7v3H17V7H29m1-1H16v5H30Z"/><path class="a" d="M13,7v3H1V7H13m1-1H0v5H14Z"/><path class="a" d="M29,14v3H17V14H29m1-1H16v5H30Z"/><path class="a" d="M13,14V24H1V14H13m1-1H0V25H14Z"/><path class="a" d="M29,21v3H17V21H29m1-1H16v5H30Z"/></svg>
